X:1
T:Title
%%score [ ( 1 2 ) ( 3 4 ) ]
L:1/8
Q:1/4=120
M:4/4
K:Gb
V:1 treble nm="Midi_74"
V:2 treble 
V:3 bass nm="Midi_74"
V:4 bass 
V:1
 E8 | G4 B4 | c8 || B8 | e4 d4 | G4 A4 | B8 || c8 | d4 c4 | B8 || B8 | %11
"^Henry Walford Davies\n(1869-1941)" c4 B4 | E4 G4 | F4 E4 |] %14
V:2
 B,8 | E4 G4 | G8 || =D8 | E4 F4 | G4 F2 E2 | F8 || A8 | A4 A4 | G4 F4 || F8 | E4 E4 | E4 =D4 | %13
 B,8 |] %14
V:3
 G,8 | B,4 E4 | C8 || [F,A,]8 | B,4 C4 | D4 E4 | E4 =D4 || E8 | _F4 E4 | =D8 || =D8 | E4 _D4 | %12
 C4 A,4 | G,8 |] %14
V:4
 E,8 | E,4 E,4 | E,8 || A,8 | G,4 A,4 | B,4 C4 | B,8 || A,8 | _F,4 A,4 | B,,8 || A,,8 | %11
 =G,,4 A,,2 B,,2 | C,4 B,,4 | E,8 |] %14

